X:155
T: IM SCHWOBENLAND A BAUER WOHNT
N: Z0154
O: Europa, Mitteleuropa, Deutschland, Kuhlaendchen
R: Erzaehlung, lustige Romanze
M: 2/4
L: 1/8
K: A
E | AABB | =cc=G
G | =ccdd | e2e2 | e2ee | e3
=c | eeee | d2d
e | =cABG | A2AA | A2z

@@@ Tune index: 9913
